X:1
T:Wind that Shakes the Barley, The
R:reel
L:1/8
M:4/4
K:D
"D"A2AB AFED|"G"B2BA BcdB|"D"A2~AB A2zf|"G"gfed "A"BcdB|
"D"A2AB AFED|"G"B2BA BcdB|"D"A2~AB A2zf|"G"gfed "A"Bcde:|
"D"f2fd "G"g2ge|"D"f2fd "G"Bcde|"D"f2fd "G"g2ge|"D"afed "G"Bcde|
"D"f2fd "G"g2ge|"D"f2fd "G"Bcde|"D"defg afba|"G"gfed "A"BcdB:|

